X:1
T:Nebraska, 10.11.11.11
T:Attributed to Johann Michael Haydn
T:Nebraska, 10.11.11.11
T:Public Domain
C:Attributed to Johann Michael Haydn
Z:Public Domain
%%score ( 1 2 ) ( 3 4 )
L:1/8
M:3/4
K:G
V:1 treble 
V:2 treble 
V:3 bass 
V:4 bass 
V:1
 [B,D]2 | [DG]2 [DG]2 [DA]2 | [DB]4 [DG]2 | [Cc]2 [Dc]2 [DB]2 | [DA]4 (DC) | [B,G]2 [DG]2 [DA]2 | %6
 [DB]2 [DB]2 [Ec]2 | ([Dd][Ec]) [DB]2 [CA]2 | [B,G]4 D2 | D2 D2 [^CE]2 | [CF]2 [CF]2 [B,G]2 | %11
 [A,A]2 [DA]2 [GB]2 | [Fc]4 (DC) | [B,G]2 [DG]2 [DA]2 | [DB]2 [DB]2 [Ec]2 | %15
 ([Dd][Ec]) [DB]2 [CA]2 | [B,G]4 |] %17
V:2
 x2 | x6 | x6 | x6 | x6 | x6 | x6 | x6 | x4 D2 | D2 D2 x2 | x6 | x6 | x6 | x6 | x6 | x6 | x4 |] %17
V:3
 [G,,G,]2 | [G,,B,]2 [B,,G,]2 [D,F,]2 | G,4 [B,,G,]2 | [E,G,]2 [F,A,]2 G,2 | [D,F,]4 [D,F,]2 | %5
 [G,,G,]2 [B,,G,]2 [D,F,]2 | G,2 G,2 [E,G,]2 | (B,,C,) [D,G,]2 [D,F,]2 | [G,,G,]4 [D,F,]2 | %9
 [D,F,]2 [D,F,]2 [D,G,]2 | [D,A,]2 [D,A,]2 [D,G,]2 | [D,F,]2 [D,F,]2 [D,G,]2 | [D,A,]4 [D,F,]2 | %13
 [G,,G,]2 [B,,G,]2 [D,F,]2 | G,2 G,2 [E,G,]2 | (B,,C,) [D,G,]2 [D,F,]2 | [G,,G,]4 |] %17
V:4
 x2 | x6 | G,4 x2 | x4 G,2 | x6 | x6 | G,2 G,2 x2 | G,2 x4 | x6 | x6 | x6 | x6 | x6 | x6 | %14
 G,2 G,2 x2 | G,2 x4 | x4 |] %17

